svg/charges/warhammer/pre-heresy-iron-warriors-symbol.svg

<?xml version="1.0" encoding="utf-8"?>
<svg version="1.1" id="Layer_5" 
	 xmlns="http://www.w3.org/2000/svg"    xmlns:dc="http://purl.org/dc/elements/1.1/"
   xmlns:cc="http://creativecommons.org/ns#"
   xmlns:rdf="http://www.w3.org/1999/02/22-rdf-syntax-ns#" xmlns:xlink="http://www.w3.org/1999/xlink" x="0px" y="0px" viewBox="0 0 1000 1000"
	 style="enable-background:new 0 0 1000 1000;" xml:space="preserve"><metadata
   id="metadata97"><rdf:RDF><cc:Work
       rdf:about=""><dc:format>image/svg+xml</dc:format><dc:type
         rdf:resource="http://purl.org/dc/dcmitype/StillImage" /><dc:title></dc:title><dc:creator><cc:Agent><dc:title>http://bakadesign.dk/warhammer-40-000-icons/</dc:title></cc:Agent></dc:creator></cc:Work></rdf:RDF></metadata>
<g style="fill:#ff0000">
		<g>
			<polygon points="234.12,400.84 234.12,158.38 193.71,195.01 197.5,441.25 			"/>
			<path d="M200.03,452.62l40.41,34.1l50.51-56.83L493,500.61l202.05-70.72l50.51,56.83l40.41-34.1l-44.2-49.25l1.26-277.82
				c-61.67-32.67-136.57-64.05-220.99-94.5V460.2H493h-29.04V31.05c-84.43,30.45-159.32,61.83-220.99,94.5l1.26,277.82
				L200.03,452.62z M725.36,135.65c5.58,0,10.1,4.52,10.1,10.1s-4.52,10.1-10.1,10.1s-10.1-4.52-10.1-10.1
				S719.78,135.65,725.36,135.65z M725.36,246.78c5.58,0,10.1,4.52,10.1,10.1c0,5.58-4.52,10.1-10.1,10.1s-10.1-4.52-10.1-10.1
				C715.25,251.3,719.78,246.78,725.36,246.78z M725.36,357.91c5.58,0,10.1,4.52,10.1,10.1c0,5.58-4.52,10.1-10.1,10.1
				s-10.1-4.52-10.1-10.1C715.25,362.43,719.78,357.91,725.36,357.91z M260.64,135.65c5.58,0,10.1,4.52,10.1,10.1
				s-4.52,10.1-10.1,10.1c-5.58,0-10.1-4.52-10.1-10.1S255.06,135.65,260.64,135.65z M260.64,246.78c5.58,0,10.1,4.52,10.1,10.1
				c0,5.58-4.52,10.1-10.1,10.1c-5.58,0-10.1-4.52-10.1-10.1C250.54,251.3,255.06,246.78,260.64,246.78z M260.64,357.91
				c5.58,0,10.1,4.52,10.1,10.1c0,5.58-4.52,10.1-10.1,10.1c-5.58,0-10.1-4.52-10.1-10.1C250.54,362.43,255.06,357.91,260.64,357.91
				z"/>
			<circle cx="260.64" cy="368.01" r="6.31"/>
			<circle cx="260.64" cy="256.88" r="6.31"/>
			<circle cx="260.64" cy="145.76" r="6.31"/>
			<polygon points="792.29,195.01 751.88,158.38 751.88,400.84 788.5,441.25 			"/>
			<path d="M793.55,458.93l-47.99,40.41l-23.99-26.52l-111.13,56.83l-66.93-32.83L493,514.5l-50.51-17.68l-66.93,32.83
				l-111.13-56.83l-23.99,26.52l-47.99-40.41l-35.36,42.94L285.9,642.04l25.26-17.68V850.4L493,983l181.84-132.6V624.36l25.26,17.68
				l128.81-140.17L793.55,458.93z M350.3,849.14h-12.63V674.87l12.63-1.26V849.14z M409.02,889.55h-12.63V666.03l12.63-1.26V889.55z
				 M467.74,924.91h-12.63V658.46l12.63-1.26V924.91z M460.17,599.11c10.94-32.63,21.89-56.63,32.83-71.98
				c10.94,15.35,21.89,39.35,32.83,71.98L493,578.9L460.17,599.11z M530.88,924.91h-12.63V657.19l12.63,1.26V924.91z M589.61,889.55
				h-12.63V664.77l12.63,1.26V889.55z M648.33,849.14H635.7V673.61l12.63,1.26V849.14z"/>
			<polygon points="514.47,451.36 514.47,22 493,22 471.53,22 471.53,451.36 493,451.36 			"/>
			<circle cx="725.36" cy="368.01" r="6.31"/>
			<circle cx="725.36" cy="256.88" r="6.31"/>
			<circle cx="725.36" cy="145.76" r="6.31"/>
		</g>

</g></svg>

<?xml version="1.0" encoding="UTF-8" standalone="no"?>
<svg
   xmlns:dc="http://purl.org/dc/elements/1.1/"
   xmlns:cc="http://creativecommons.org/ns#"
   xmlns:rdf="http://www.w3.org/1999/02/22-rdf-syntax-ns#"
   xmlns:svg="http://www.w3.org/2000/svg"
   xmlns="http://www.w3.org/2000/svg"
   xmlns:sodipodi="http://sodipodi.sourceforge.net/DTD/sodipodi-0.dtd"
   xmlns:inkscape="http://www.inkscape.org/namespaces/inkscape"
   version="1.1"
   id="Layer_5"
   x="0px"
   y="0px"
   viewBox="0 0 671.82001 961"
   xml:space="preserve"
   sodipodi:docname="pre-heresy-iron-warriors-symbol.svg"
   width="671.82001"
   height="961"
   inkscape:version="0.92.3 (2405546, 2018-03-11)"><defs
   id="defs32" /><sodipodi:namedview
   pagecolor="#ffffff"
   bordercolor="#666666"
   borderopacity="1"
   objecttolerance="10"
   gridtolerance="10"
   guidetolerance="10"
   inkscape:pageopacity="0"
   inkscape:pageshadow="2"
   inkscape:window-width="640"
   inkscape:window-height="480"
   id="namedview30"
   showgrid="false"
   inkscape:zoom="0.236"
   inkscape:cx="342.91"
   inkscape:cy="483"
   inkscape:window-x="0"
   inkscape:window-y="0"
   inkscape:window-maximized="0"
   inkscape:current-layer="Layer_5" /><metadata
   id="metadata97"><rdf:RDF><cc:Work
       rdf:about=""><dc:format>image/svg+xml</dc:format><dc:type
         rdf:resource="http://purl.org/dc/dcmitype/StillImage" /><dc:title></dc:title><dc:creator><cc:Agent><dc:title>http://bakadesign.dk/warhammer-40-000-icons/</dc:title></cc:Agent></dc:creator></cc:Work></rdf:RDF></metadata>
<g
   style="fill:#ff0000"
   id="g27"
   transform="translate(-157.09,-22)">
		<g
   id="g25">
			<polygon
   points="193.71,195.01 197.5,441.25 234.12,400.84 234.12,158.38 "
   id="polygon3" />
			<path
   d="m 200.03,452.62 40.41,34.1 50.51,-56.83 202.05,70.72 202.05,-70.72 50.51,56.83 40.41,-34.1 -44.2,-49.25 1.26,-277.82 C 681.36,92.88 606.46,61.5 522.04,31.05 V 460.2 H 493 463.96 V 31.05 C 379.53,61.5 304.64,92.88 242.97,125.55 l 1.26,277.82 z M 725.36,135.65 c 5.58,0 10.1,4.52 10.1,10.1 0,5.58 -4.52,10.1 -10.1,10.1 -5.58,0 -10.1,-4.52 -10.1,-10.1 0,-5.58 4.52,-10.1 10.1,-10.1 z m 0,111.13 c 5.58,0 10.1,4.52 10.1,10.1 0,5.58 -4.52,10.1 -10.1,10.1 -5.58,0 -10.1,-4.52 -10.1,-10.1 -0.01,-5.58 4.52,-10.1 10.1,-10.1 z m 0,111.13 c 5.58,0 10.1,4.52 10.1,10.1 0,5.58 -4.52,10.1 -10.1,10.1 -5.58,0 -10.1,-4.52 -10.1,-10.1 -0.01,-5.58 4.52,-10.1 10.1,-10.1 z M 260.64,135.65 c 5.58,0 10.1,4.52 10.1,10.1 0,5.58 -4.52,10.1 -10.1,10.1 -5.58,0 -10.1,-4.52 -10.1,-10.1 0,-5.58 4.52,-10.1 10.1,-10.1 z m 0,111.13 c 5.58,0 10.1,4.52 10.1,10.1 0,5.58 -4.52,10.1 -10.1,10.1 -5.58,0 -10.1,-4.52 -10.1,-10.1 0,-5.58 4.52,-10.1 10.1,-10.1 z m 0,111.13 c 5.58,0 10.1,4.52 10.1,10.1 0,5.58 -4.52,10.1 -10.1,10.1 -5.58,0 -10.1,-4.52 -10.1,-10.1 0,-5.58 4.52,-10.1 10.1,-10.1 z"
   id="path5"
   inkscape:connector-curvature="0" />
			<circle
   cx="260.64001"
   cy="368.01001"
   r="6.3099999"
   id="circle7" />
			<circle
   cx="260.64001"
   cy="256.88"
   r="6.3099999"
   id="circle9" />
			<circle
   cx="260.64001"
   cy="145.75999"
   r="6.3099999"
   id="circle11" />
			<polygon
   points="751.88,400.84 788.5,441.25 792.29,195.01 751.88,158.38 "
   id="polygon13" />
			<path
   d="M 793.55,458.93 745.56,499.34 721.57,472.82 610.44,529.65 543.51,496.82 493,514.5 442.49,496.82 375.56,529.65 264.43,472.82 240.44,499.34 192.45,458.93 157.09,501.87 285.9,642.04 311.16,624.36 V 850.4 L 493,983 674.84,850.4 V 624.36 L 700.1,642.04 828.91,501.87 Z M 350.3,849.14 H 337.67 V 674.87 l 12.63,-1.26 z m 58.72,40.41 H 396.39 V 666.03 l 12.63,-1.26 z m 58.72,35.36 H 455.11 V 658.46 l 12.63,-1.26 z m -7.57,-325.8 c 10.94,-32.63 21.89,-56.63 32.83,-71.98 10.94,15.35 21.89,39.35 32.83,71.98 L 493,578.9 Z m 70.71,325.8 H 518.25 V 657.19 l 12.63,1.26 z m 58.73,-35.36 H 576.98 V 664.77 l 12.63,1.26 z m 58.72,-40.41 H 635.7 V 673.61 l 12.63,1.26 z"
   id="path15"
   inkscape:connector-curvature="0" />
			<polygon
   points="493,22 471.53,22 471.53,451.36 493,451.36 514.47,451.36 514.47,22 "
   id="polygon17" />
			<circle
   cx="725.35999"
   cy="368.01001"
   r="6.3099999"
   id="circle19" />
			<circle
   cx="725.35999"
   cy="256.88"
   r="6.3099999"
   id="circle21" />
			<circle
   cx="725.35999"
   cy="145.75999"
   r="6.3099999"
   id="circle23" />
		</g>

</g></svg>
